svgs/sharp-regular/house-chimney-crack.svg

<svg xmlns="http://www.w3.org/2000/svg" viewBox="0 0 576 512"><!--! Font Awesome Pro 6.6.0 by @fontawesome - https://fontawesome.com License - https://fontawesome.com/license (Commercial License) Copyright 2024 Fonticons, Inc. --><path d="M288 .5l15.5 13.2L464 149.9 464 88l0-24 48 0 0 24 0 102.6 55.5 47.1-31.1 36.6L512 253.5 512 488l0 24-24 0L88 512l-24 0 0-24 0-234.5L39.5 274.3 8.5 237.7l264-224L288 .5zm0 63L112 212.8 112 464l108.8 0L192 416l96-80L224 224 384 336l-96 80 28.8 48L464 464l0-224 0-24 0-3.2L288 63.5z"/></svg>

<svg xmlns="http://www.w3.org/2000/svg" viewBox="0 0 576 512"><!--! Font Awesome Pro 6.4.0 by @fontawesome - https://fontawesome.com License - https://fontawesome.com/license (Commercial License) Copyright 2023 Fonticons, Inc. --><path d="M288 .5l15.5 13.2L464 149.9V88 64h48V88 190.6l55.5 47.1-31.1 36.6L512 253.5V488v24H488 88 64V488 253.5L39.5 274.3 8.5 237.7l264-224L288 .5zm0 63L112 212.8V464H220.8L192 416l96-80L224 224 384 336l-96 80 28.8 48H464l0-224V216l0-3.2L288 63.5z"/></svg>
